utils/icon设计资源/icons/exclamation-octagon-fill.svg

<?xml version="1.0" encoding="UTF-8" standalone="no"?>
<svg
   xmlns:dc="http://purl.org/dc/elements/1.1/"
   xmlns:cc="http://creativecommons.org/ns#"
   xmlns:rdf="http://www.w3.org/1999/02/22-rdf-syntax-ns#"
   xmlns:svg="http://www.w3.org/2000/svg"
   xmlns="http://www.w3.org/2000/svg"
   xmlns:sodipodi="http://sodipodi.sourceforge.net/DTD/sodipodi-0.dtd"
   xmlns:inkscape="http://www.inkscape.org/namespaces/inkscape"
   inkscape:version="1.0 (4035a4fb49, 2020-05-01)"
   sodipodi:docname="exclamation-octagon-fill.svg"
   id="svg3706"
   version="1.1"
   fill="currentColor"
   class="bi bi-exclamation-octagon-fill"
   viewBox="0 0 16 16"
   height="1em"
   width="1em">
  <metadata
     id="metadata3712">
    <rdf:RDF>
      <cc:Work
         rdf:about="">
        <dc:format>image/svg+xml</dc:format>
        <dc:type
           rdf:resource="http://purl.org/dc/dcmitype/StillImage" />
      </cc:Work>
    </rdf:RDF>
  </metadata>
  <defs
     id="defs3710" />
  <sodipodi:namedview
     inkscape:current-layer="svg3706"
     inkscape:window-maximized="1"
     inkscape:window-y="-9"
     inkscape:window-x="-9"
     inkscape:cy="6.4578313"
     inkscape:cx="8"
     inkscape:zoom="51.875"
     showgrid="false"
     id="namedview3708"
     inkscape:window-height="1001"
     inkscape:window-width="1920"
     inkscape:pageshadow="2"
     inkscape:pageopacity="0"
     guidetolerance="10"
     gridtolerance="10"
     objecttolerance="10"
     borderopacity="1"
     bordercolor="#666666"
     pagecolor="#ffffff" />
  <path
     d="M 4.8925781 0 A 0.5 0.5 0 0 0 4.5390625 0.14648438 L 0.14648438 4.5390625 A 0.5 0.5 0 0 0 0 4.8925781 L 0 11.107422 A 0.5 0.5 0 0 0 0.14648438 11.460938 L 4.5390625 15.853516 A 0.5 0.5 0 0 0 4.8925781 16 L 11.107422 16 A 0.5 0.5 0 0 0 11.460938 15.853516 L 15.853516 11.460938 A 0.5 0.5 0 0 0 16 11.107422 L 16 4.8925781 A 0.5 0.5 0 0 0 15.853516 4.5390625 L 11.460938 0.14648438 A 0.5 0.5 0 0 0 11.107422 0 L 4.8925781 0 z M 8 4 A 0.905 0.905 0 0 1 8.9003906 4.9941406 L 8.5507812 8.5019531 A 0.552 0.552 0 0 1 7.4492188 8.5019531 L 7.0996094 4.9941406 A 0.905 0.905 0 0 1 8 4 z M 8.0019531 10 A 1 1 0 0 1 8.0019531 12 A 1 1 0 0 1 8.0019531 10 z "
     style="fill:#000000;fill-opacity:1;fill-rule:evenodd"
     id="path3704" />
</svg>

<svg width="1em" height="1em" viewBox="0 0 16 16" class="bi bi-exclamation-octagon-fill" fill="currentColor" xmlns="http://www.w3.org/2000/svg">
  <path fill-rule="evenodd" d="M11.46.146A.5.5 0 0 0 11.107 0H4.893a.5.5 0 0 0-.353.146L.146 4.54A.5.5 0 0 0 0 4.893v6.214a.5.5 0 0 0 .146.353l4.394 4.394a.5.5 0 0 0 .353.146h6.214a.5.5 0 0 0 .353-.146l4.394-4.394a.5.5 0 0 0 .146-.353V4.893a.5.5 0 0 0-.146-.353L11.46.146zM8 4a.905.905 0 0 0-.9.995l.35 3.507a.552.552 0 0 0 1.1 0l.35-3.507A.905.905 0 0 0 8 4zm.002 6a1 1 0 1 0 0 2 1 1 0 0 0 0-2z"/>
</svg>
